public/assets/icons/infoarch.svg

<svg fill="none" height="33" viewBox="0 0 32 33" width="32" xmlns="http://www.w3.org/2000/svg"><path d="m21.5 14.6927h6c.5304 0 1.0391-.2107 1.4142-.5857.3751-.3751.5858-.8838.5858-1.4143v-5.99995c0-.53043-.2107-1.03914-.5858-1.41421-.3751-.37508-.8838-.58579-1.4142-.58579h-6c-.5304 0-1.0391.21071-1.4142.58579-.3751.37507-.5858.88378-.5858 1.41421v2h-1c-1.0609 0-2.0783.42143-2.8284 1.17157-.7502.75018-1.1716 1.76758-1.1716 2.82838v3h-4v-1c0-.5304-.2107-1.0391-.58579-1.4142-.37507-.375-.88378-.5858-1.41421-.5858h-4c-.53043 0-1.03914.2108-1.41421.5858-.37508.3751-.58579.8838-.58579 1.4142v4c0 .5305.21071 1.0392.58579 1.4143.37507.375.88378.5857 1.41421.5857h4c.53043 0 1.03914-.2107 1.41421-.5857.37509-.3751.58579-.8838.58579-1.4143v-1h4v3c0 1.0609.4214 2.0783 1.1716 2.8285.7501.7501 1.7675 1.1715 2.8284 1.1715h1v2c0 .5305.2107 1.0392.5858 1.4143.3751.375.8838.5857 1.4142.5857h6c.5304 0 1.0391-.2107 1.4142-.5857.3751-.3751.5858-.8838.5858-1.4143v-6c0-.5304-.2107-1.0391-.5858-1.4142-.3751-.375-.8838-.5858-1.4142-.5858h-6c-.5304 0-1.0391.2108-1.4142.5858-.3751.3751-.5858.8838-.5858 1.4142v2h-1c-.5304 0-1.0391-.2107-1.4142-.5857-.3751-.3751-.5858-.8838-.5858-1.4143v-8c0-.5304.2107-1.0391.5858-1.4142.3751-.375.8838-.5858 1.4142-.5858h1v2c0 .5305.2107 1.0392.5858 1.4143.3751.375.8838.5857 1.4142.5857zm-13 4h-4v-4h4zm13 2h6v6h-6zm0-13.99995h6v5.99995h-6z" fill="#fff"/></svg>

<svg width="32" height="33" viewBox="0 0 32 33" fill="none" xmlns="http://www.w3.org/2000/svg">
<path d="M21.5 14.6927H27.5C28.0304 14.6927 28.5391 14.482 28.9142 14.107C29.2893 13.7319 29.5 13.2232 29.5 12.6927V6.69275C29.5 6.16232 29.2893 5.65361 28.9142 5.27854C28.5391 4.90346 28.0304 4.69275 27.5 4.69275H21.5C20.9696 4.69275 20.4609 4.90346 20.0858 5.27854C19.7107 5.65361 19.5 6.16232 19.5 6.69275V8.69275H18.5C17.4391 8.69275 16.4217 9.11418 15.6716 9.86432C14.9214 10.6145 14.5 11.6319 14.5 12.6927V15.6927H10.5V14.6927C10.5 14.1623 10.2893 13.6536 9.91421 13.2785C9.53914 12.9035 9.03043 12.6927 8.5 12.6927H4.5C3.96957 12.6927 3.46086 12.9035 3.08579 13.2785C2.71071 13.6536 2.5 14.1623 2.5 14.6927V18.6927C2.5 19.2232 2.71071 19.7319 3.08579 20.107C3.46086 20.482 3.96957 20.6927 4.5 20.6927H8.5C9.03043 20.6927 9.53914 20.482 9.91421 20.107C10.2893 19.7319 10.5 19.2232 10.5 18.6927V17.6927H14.5V20.6927C14.5 21.7536 14.9214 22.771 15.6716 23.5212C16.4217 24.2713 17.4391 24.6927 18.5 24.6927H19.5V26.6927C19.5 27.2232 19.7107 27.7319 20.0858 28.107C20.4609 28.482 20.9696 28.6927 21.5 28.6927H27.5C28.0304 28.6927 28.5391 28.482 28.9142 28.107C29.2893 27.7319 29.5 27.2232 29.5 26.6927V20.6927C29.5 20.1623 29.2893 19.6536 28.9142 19.2785C28.5391 18.9035 28.0304 18.6927 27.5 18.6927H21.5C20.9696 18.6927 20.4609 18.9035 20.0858 19.2785C19.7107 19.6536 19.5 20.1623 19.5 20.6927V22.6927H18.5C17.9696 22.6927 17.4609 22.482 17.0858 22.107C16.7107 21.7319 16.5 21.2232 16.5 20.6927V12.6927C16.5 12.1623 16.7107 11.6536 17.0858 11.2785C17.4609 10.9035 17.9696 10.6927 18.5 10.6927H19.5V12.6927C19.5 13.2232 19.7107 13.7319 20.0858 14.107C20.4609 14.482 20.9696 14.6927 21.5 14.6927ZM8.5 18.6927H4.5V14.6927H8.5V18.6927ZM21.5 20.6927H27.5V26.6927H21.5V20.6927ZM21.5 6.69275H27.5V12.6927H21.5V6.69275Z" fill="white"/>
</svg>
